**kern	**kern	**dynam
*part1	*part1	*part1
*staff2	*staff1	*
*I"Piano	*	*
*clefF4	*clefF4	*
*k[b-]	*k[b-]	*
*	*	*
=1	=1	=1
!	!LO:TX:b:t=[IMSLP edition #51736 has an incorrect key signature for the first page (p.15) of this score and \nchanges at measure 28 (the second page, p.16) without prior warning from two flats to one flat.\nThis file restores the correct key signature of one flat throughout.]	!
8CC	16ELL	.
.	16G	.
16CLL 16E	16B-	.
16CJ 16E	16c	.
8CJ 8E	16e	.
.	16gJJ	.
*	*clefG2	*
=	=	=
8FF	16aLL	>
.	16f	.
16r	16cJJ	.
16ALL	16r	.
16F	(16cLL	.
16CJJ	16dJJ	.
=	=	=
8DD	16e-XLL	] p
.	16d	.
16F#XLL 16A	16c	.
16F#J 16A	16a	.
8F#J 8A	16g	.
.	16f#XJJ	.
=	=	=
8DD	16gLL	.
.	16dd	.
16GLL 16B-	16cc	.
16GJ 16B-	16b-	.
8GJ 8B-	16a	.
.	16b-JJ	.
=	=	=
8DD	16aLL	.
.	16g	.
16B-LL 16c#X 16en	16f#X	.
16B-J 16c# 16e	16g	.
8B-J 8c# 8e	16a	.
.	16b-JJ	.
=	=	=
8DD	16aLL	.
.	16f#X	.
16F#XLL 16A	16d	.
16F#J 16A	16e-X	.
8F#J 8A	16c	.
.	16dJJ)	.
=	=	=
8DD	16e-XLL	.
.	16d	.
16F#XLL 16A	16c	.
16F#J 16A	16a	.
8F#J 8A	16g	.
.	16f#XJJ	.
=	=	=
*-	*-	*-
!!!system-decoration: {(s1,s2)}
